packages/sources/icons/src/vitamix/camera-line.svg

<svg width="16" height="16" viewBox="0 0 16 16" fill="none" xmlns="http://www.w3.org/2000/svg">
<path fill-rule="evenodd" clip-rule="evenodd" d="M6.66665 1.33334H2.66665V2.66667H6.66665V1.33334ZM1.33331 4C1.33331 3.632 1.63664 3.33334 1.99464 3.33334H14.0053C14.3706 3.33334 14.6666 3.63 14.6666 4V13.3333C14.6666 13.7013 14.3633 14 14.0053 14H1.99464C1.81843 13.9997 1.64961 13.9291 1.52551 13.804C1.40141 13.6789 1.33225 13.5095 1.33331 13.3333V4ZM2.66665 4.66667V12.6667H13.3333V4.66667H2.66665ZM11.3333 8.66667C11.3333 9.77124 10.4379 10.6667 9.33332 10.6667C8.22875 10.6667 7.33332 9.77124 7.33332 8.66667C7.33332 7.5621 8.22875 6.66667 9.33332 6.66667C10.4379 6.66667 11.3333 7.5621 11.3333 8.66667ZM9.33331 12C7.49237 12 5.99998 10.5076 5.99998 8.66667C5.99998 6.82572 7.49237 5.33334 9.33331 5.33334C11.1743 5.33334 12.6666 6.82572 12.6666 8.66667C12.6666 10.5076 11.1743 12 9.33331 12Z" fill="#001018"/>
</svg>

<svg width="16" height="16" fill="none" xmlns="http://www.w3.org/2000/svg"><path fill-rule="evenodd" clip-rule="evenodd" d="M6.667 1.333h-4v1.334h4V1.333zM1.333 4a.67.67 0 0 1 .662-.667h12.01c.366 0 .662.297.662.667v9.333a.669.669 0 0 1-.662.667H1.995a.662.662 0 0 1-.662-.667V4zm1.334.667v8h10.666v-8H2.667zm8.666 4a2 2 0 1 1-4 0 2 2 0 0 1 4 0zm-2 3.333a3.333 3.333 0 1 1 0-6.667 3.333 3.333 0 0 1 0 6.667z" fill="#001018"/></svg>
